X: 15679
T: Gold Ring, The
R: jig
M: 6/8
K: Gmajor
d|cAG GFG|cAG G2d|cAG GFG|cAG F2d|
cAG GFG|cAG A2G|FGA fed|cAF G2:|
|:d|cAd cAd|cAF G2d|cAd cAd|cAG F2d|
cAd cAd|cAG A2G|FGA fed|cAF G2:|
|:(3d/e/f/|gag gdc|BGG G2 d/e/|=fg=f =fc_B|A=F=F =F2D|
gag gdc|BGG G2d|=fg=f =fed|cAF G2:|
|:(3d/e/f/|gdd fdd|gdd fdd|gdd fdd|cAF G2 d|
gdd fdd|gdd fdd|f/g/ag fed|cAF G2:|
|:D|Gdd Gdd|cAF G2A|B2 G A2G|cAG FGA|
B2GA2G|B2G A2G|FGA fed|cAF G2:|
|:G/A/|BGB AFA|DED FED|Add fed|cAG FGA|
BAB DED|DED FED|Add fed|cAF G2:|

